frontend/svgs/biz032.svg

<?xml version="1.0" encoding="UTF-8"?> <svg width="100px" height="100px" viewBox="0 0 100 100" version="1.1" xmlns="http://www.w3.org/2000/svg" xmlns:xlink="http://www.w3.org/1999/xlink"> <g id="32.-Cup" stroke="none" stroke-width="1" fill="none" fill-rule="evenodd" stroke-linecap="round" stroke-linejoin="round"> <path d="M78.8,28.1258618 C80.7191879,26.9063012 82.9963643,26.2 85.4387982,26.2 L88.2324548,26.2 C93.537228,26.2 97.8375965,30.4995312 97.8375965,35.8007297 L97.8375964,54.8905203 C97.8375964,60.1928569 93.5464946,64.49125 88.2324547,64.49125 L85.4387982,64.49125 C82.8313727,64.49125 80.4119321,63.6869293 78.4153673,62.3121865 C78.6685259,60.7119984 78.8,59.0713463 78.8,57.4 L78.8,28.1258618 L78.8,28.1258618 Z" id="Layer-1" stroke="#4A95F2" stroke-width="4"></path> <path d="M61,85.5834181 L61,94 L18,94 L18,84.6554037 C8.4542521,79.321183 2,69.1161752 2,57.4 L2,16.6 L78.8,16.6 L78.8,57.4 C78.8,69.8344287 71.5228869,80.5699253 61,85.5834181 Z" id="Layer-2" stroke="#4A95F2" stroke-width="4" fill="#4A95F2"></path> <rect id="Layer-3" stroke="#6DAEFF" stroke-width="4" fill="#6DAEFF" x="2" y="7" width="76.8" height="9.6"></rect> </g> </svg>

<svg width="100" height="100" xmlns="http://www.w3.org/2000/svg"><g fill="none" fill-rule="evenodd" stroke-linecap="round" stroke-linejoin="round" stroke-width="4"><path d="M78.8 28.126a12.337 12.337 0 016.639-1.926h2.793c5.305 0 9.606 4.3 9.606 9.6v19.09c0 5.303-4.292 9.601-9.606 9.601H85.44c-2.608 0-5.027-.804-7.024-2.179.254-1.6.385-3.24.385-4.912V28.126h0z" stroke="#4A95F2"/><path d="M61 85.583V94H18v-9.345C8.454 79.321 2 69.116 2 57.4V16.6h76.8v40.8c0 12.434-7.277 23.17-17.8 28.183z" stroke="#4A95F2" fill="#4A95F2"/><path stroke="#6DAEFF" fill="#6DAEFF" d="M2 7h76.8v9.6H2z"/></g></svg>
